img/tree.svg

<svg xmlns="http://www.w3.org/2000/svg" width="800" height="800" viewBox="0 0 36 36"><rect width="6" height="6" x="10" y="26" rx="1" ry="1"/><path d="M15 16h-4a1 1 0 0 0-1 1v1.2H5.8V12H7a1 1 0 0 0 1-1V7a1 1 0 0 0-1-1H3a1 1 0 0 0-1 1v4a1 1 0 0 0 1 1h1.2v17.8H11a.8.8 0 1 0 0-1.6H5.8v-8.4H10V21a1 1 0 0 0 1 1h4a1 1 0 0 0 1-1v-4a1 1 0 0 0-1-1"/><path d="M33 8H10v2h23a1 1 0 0 0 0-2m0 10H18v2h15a1 1 0 0 0 0-2m0 10H18v2h15a1 1 0 0 0 0-2"/><path fill="none" d="M0 0h36v36H0z"/></svg>

<?xml version="1.0" encoding="utf-8"?><!-- Uploaded to: SVG Repo, www.svgrepo.com, Generator: SVG Repo Mixer Tools -->
<svg fill="#000000" width="800px" height="800px" viewBox="0 0 36 36" version="1.1"  preserveAspectRatio="xMidYMid meet" xmlns="http://www.w3.org/2000/svg" xmlns:xlink="http://www.w3.org/1999/xlink">
    <title>tree-view-solid</title>
    <rect x="10" y="26" width="6" height="6" rx="1" ry="1" class="clr-i-solid clr-i-solid-path-1"></rect><path d="M15,16H11a1,1,0,0,0-1,1v1.2H5.8V12H7a1,1,0,0,0,1-1V7A1,1,0,0,0,7,6H3A1,1,0,0,0,2,7v4a1,1,0,0,0,1,1H4.2V29.8H11a.8.8,0,1,0,0-1.6H5.8V19.8H10V21a1,1,0,0,0,1,1h4a1,1,0,0,0,1-1V17A1,1,0,0,0,15,16Z" class="clr-i-solid clr-i-solid-path-2"></path><path d="M33,8H10v2H33a1,1,0,0,0,0-2Z" class="clr-i-solid clr-i-solid-path-3"></path><path d="M33,18H18v2H33a1,1,0,0,0,0-2Z" class="clr-i-solid clr-i-solid-path-4"></path><path d="M33,28H18v2H33a1,1,0,0,0,0-2Z" class="clr-i-solid clr-i-solid-path-5"></path>
    <rect x="0" y="0" width="36" height="36" fill-opacity="0"/>
</svg>
